images/icons/v2/sound-off-outline-24.svg

<svg height="24" viewBox="0 0 24 24" width="24" xmlns="http://www.w3.org/2000/svg"><path d="m20.061 12 2.469 2.47-1.06 1.06-2.47-2.469-2.47 2.469-1.06-1.06 2.469-2.47-2.469-2.47 1.06-1.06 2.47 2.469 2.47-2.469 1.06 1.06zm-6.561-9.364a.494.494 0 0 0 -.335.132l-5.165 4.732h-4a2 2 0 0 0 -2 2v5a2 2 0 0 0 2 2h4l5.162 4.732a.494.494 0 0 0 .335.132.5.5 0 0 0 .5-.5v-17.727a.5.5 0 0 0 -.497-.501zm-.75 16.614-1.41-1.723-2.757-2.527h-4.583a.5.5 0 0 1 -.5-.5v-5a.5.5 0 0 1 .5-.5h4.583l2.757-2.527 1.41-1.723-.25 2.75v9z"/></svg>

<svg xmlns="http://www.w3.org/2000/svg" width="24" height="24" viewBox="0 0 24 24"><title>sound-off-outline-24</title><path d="M20.061,12l2.469,2.47-1.06,1.06L19,13.061,16.53,15.53l-1.06-1.06L17.939,12,15.47,9.53l1.06-1.06L19,10.939,21.47,8.47l1.06,1.06ZM13.5,2.636a.494.494,0,0,0-.335.132L8,7.5H4a2,2,0,0,0-2,2v5a2,2,0,0,0,2,2H8l5.162,4.732a.494.494,0,0,0,.335.132.5.5,0,0,0,.5-.5V3.137A.5.5,0,0,0,13.5,2.636ZM12.75,19.25l-1.41-1.723L8.583,15H4a.5.5,0,0,1-.5-.5v-5A.5.5,0,0,1,4,9H8.583L11.34,6.473,12.75,4.75,12.5,7.5v9Z"/></svg>
